!!!!SEGMENT: pl-kozmzk--mzk-m-159--001-049_walczynski-franciszek--praeludia-organi-op-5-49-maestoso.krn
!!!cenid: 18xx:2792
!!!COM: Walczyński, Franciszek
!!!COM-rismID: pe30021989
!!!CDT: ~1852-1937
!!!CNT: Polish
!!!GTL: Praeludia organi op. 5
!!!OTL: 49. Maestoso
!!!OMV: 049
!!!PDT: 1894
!!!AGN: Secular; Prelude
!!!YEC: Copyright 2022 Narodowy Instytut Fryderyka Chopina (https://polishscores.org)
!!!YEM: License CC-BY-4.0 (https://creativecommons.org/licenses/by/4.0)
!!!SMS-siglum: PL-KOZmzk
!!!SMS-shelfmark: mzk/m/159
!!!SMS-shelfwork: 001-049 G
!!!SMS-variant:
!!!SMS-altvar:
!!!NIFC-rismSourceID: 1001084394
!!!NIFC-rismChildID: 1001118864
!!!NIFC-islandoraID: pl-kozmzk:2265
!!!URL-pdf-islandora: https://repozytorium.nifc.pl/islandora/object/pl-kozmzk%3A2265/datastream/PDF/view
!!!URL-scan: https://polish.musicsources.pl/pl/lokalizacje/galeria/druki-muzyczne/7406 @EN{Scan on Polish Music Sources Website} @PL{Skany w portalu Dziedzictwo Muzyki Polskiej w otwartym dostępie}
!!!IIIF:
!!!ONB-nifc: UWAGA: numeracja plików zgodna z numeracją źrodłową
!!!OMD: 49. Maestoso.
!!!AIN: 1 empty 1 organ
!!!key:
**kern	**kern	**dynam
*part2	*part1	*
*staff2	*staff1	*
*Iorgan	*Iempty	*
*I"[Organo]	*	*
*clefF4	*clefG2	*
*k[b-e-a-d-g-]	*k[b-e-a-d-g-]	*
*e-:	*e-:	*
*M2/2	*M2/2	*
*met(c|)	*met(c|)	*
=1	=1	=1
*^	*^	*
(2B-/	2B-\	(2b-/	2b-\	f
2F/	2F\	2f/	2f\	.
=2	=2	=2	=2	=2
4A-/	4A-\	4a-/	4a-\	.
4G-/	4G-\	4g-/	4g-\	.
2F/	2F\	2f/	2f\	.
=3	=3	=3	=3	=3
4E-/	4E-\	4e-/	4e-\	>
4D-/	4D-\	4d-/	4d-\	.
4C/	4C\	4c/	4c\	.
4F/)	4F\	4f/)	4f\	]]
*	*	*v	*v	*
=4	=4	=4	=4
2F/ 2D-/	([1BB-\	(>2B-/	p
2G-/ 2E-/	.	2c/	<
=5	=5	=5	=5
1B-/	2F\ 2BB-\]	2d-/	.
.	2G-\ 2GG-\	2e-/	[[
=6	=6	=6	=6
*	*	*^	*
2B-/	1FF\;)	1f/;)	1c\	>
2An/	.	.	.	]
*v	*v	*	*	*
=7	=7	=7	=7
1r	(2cc/	1r	p
.	2f/	.	.
=8	=8	=8	=8
*^	*	*	*
(4B-/	1r	4dd-/	1r	.
4c/	.	4cc/	.	.
2d-/	.	2b-/	.	.
!!LO:LB:g=original
=9	=9	=9	=9	=9
4e-/	1r	1an/	1r	.
4g-/	.	.	.	.
4f/	.	.	.	.
4e-/	.	.	.	.
=10	=10	=10	=10	=10
4d-/	1r	4b-/	1r	.
4An/	.	4cc/	.	.
2B-/)	.	2dd-/)	.	.
=11	=11	=11	=11	=11
*	*	*	*	*^
!LO:TX:b:i:t=Ped.	!	!	!	!LO:DY:b=2	!LO:DY:a
1B-/	2E-\	2ee-/	2g-\	f	f
.	2BB-\	2dd-/	2f\	.	.
*	*	*	*	*v	*v
=12	=12	=12	=12	=12
2An/	2C\	(4.dd-^/	2e-\	.
.	.	8cc/	.	.
2B-/	2D-\	2b-/)	2f\	.
=13	=13	=13	=13	=13
(2e-/	2E-\	(2cc^/	2g-\	.
4d-/	2F\	4b-/	4.f\	.
4c/	.	4an/	.	.
.	.	.	8e-\	.
=14	=14	=14	=14	=14
2B-/	[1BB-\	[1b-/)	2d-\	.
2A-X/)	.	.	2dn\	.
=15	=15	=15	=15	=15
(4G-/	1BB-\_	1b-/_	(4e-\	>
4B-/	.	.	4g-\	.
4A-/	.	.	4f\	.
4G-/	.	.	4e-\	]]
=16	=16	=16	=16	=16
1F/)	1BB-\;]	1b-/;]	1dn\)	pp
*v	*v	*	*	*
*	*v	*v	*
==	==	==
*-	*-	*-
!!!system-decoration: {(s1,s2)}
!!!EED: Andrzej Borzym
!!!EEV: 2021-08-08
!!!RDF**kern: > = above
!!!RDF**kern: < = below
!!!ENC: Krzysztof Stępień
!!!END: 2021-07-26
